X: 23317
T: Leg Of The Duck, The
R: jig
M: 6/8
K: Gmajor
|:D2G GAG|F/G/AF Ddc|B/c/dB GB/c/d|cAG FGE|
DGG GAG|F/G/AF DBc|ded cAF|1 G3 G2 F:|2 G3 GA/B/c||
|:dgg dff|dgg cBc|dgg dff|GFG ABc|
def ~g3|agf gfe|dB/c/d cBA|1 BGF GA/B/c:|2 BGF G3||

